X: 63
T:Wind in the Trees
C:Rick Weidley
M:4/4
F:http://blackrosetheband.googlepages.com/ABCTUNES.ABC May 2009
R:
K:C
"Am"EGA2 AGAB| cBcd e2dc | "G"Bdd2 dedc | "(Em)"BAGD EGBA |
"Am"A2AB A2AB | cBcd "G"edcd | "Am"eabg aegd | "G"edBA "Am"A2 A2 :|
|: "Am"e2cA EAce | "G"d2BG DGBd | "C(Am?)"cBcd edcA | "G"Bcde dcBd |
"Am"cBcd e2dc | "G"Bdeg edcd | "Am"eabg aegd | "G"eBdB "Am"A2A2:|

